;FLAVOR:Marlin
;TIME:3392
;Filament used: 2.48466m
;Layer height: 0.2
;ZOFFSETPROCESSED
;Generated with Cura_SteamEngine 3.6.0
M140 S60
M105
M190 S60
M104 S200
M105
M109 S200
M82 ;absolute extrusion mode
G21 ;metric values
G90 ;absolute positioning
M82 ;set extruder to absolute mode
M107 ;start with the fan off
G28 X0 Y0 ;move X/Y to min endstops
G28 Z0 ;move Z to min endstops
G1 Z15.0 F100 ;move the platform down 15mm
G92 E0 ;zero the extruded length
G1 F200 E3 ;extrude 3mm of feed stock
G92 E0 ;zero the extruded length again
G1 F100
M117 Printing...
G5
G92 E0
G1 F2400 E-6
;LAYER_COUNT:18
;LAYER:0
M106 S255
M204 S3000
M205 X10 Y10
G0 F3000 X75.826 Y75.75 Z0.9 ;adjusted by z offset
G92 Z0.2 ;consider this the original z before offset
M204 S1800
M205 X8 Y8
;TYPE:SKIRT
G1 F2400 E0
G1 X76.356 Y75.269 E0.03333
G1 X77.197 Y74.692 E0.08082
G1 X77.481 Y74.529 E0.09607
G1 X78.12 Y74.208 E0.12936
G1 X78.792 Y73.961 E0.1627
G1 X79.486 Y73.79 E0.19598
G1 X80.279 Y73.692 E0.23319
G1 X81.579 Y73.613 E0.29384
G1 X81.968 Y73.601 E0.31196
G1 X128.964 Y73.61 E2.50029
G1 X129.678 Y73.65 E2.53359
G1 X130.556 Y73.811 E2.57515
G1 X131.132 Y73.959 E2.60284
G1 X131.813 Y74.176 E2.63613
G1 X132.467 Y74.467 E2.66946
G1 X133.084 Y74.829 E2.70277
G1 X133.88 Y75.455 E2.74992
G1 X134.153 Y75.707 E2.76722
G1 X134.651 Y76.221 E2.80055
G1 X135.088 Y76.787 E2.83384
G1 X135.54 Y77.555 E2.87534
G1 X135.693 Y77.862 E2.89131
G1 X135.976 Y78.519 E2.92462
G1 X136.184 Y79.204 E2.95795
G1 X136.314 Y79.907 E2.99124
G1 X136.355 Y80.359 E3.01238
G1 X136.408 Y81.304 E3.05645
G1 X136.418 Y81.663 E3.07317
G1 X136.41 Y128.903 E5.27286
G1 X136.333 Y129.891 E5.31901
G1 X136.262 Y130.345 E5.34041
G1 X136.112 Y131.044 E5.3737
G1 X135.885 Y131.723 E5.40703
G1 X135.529 Y132.472 E5.44565
G1 X135.393 Y132.716 E5.45866
G1 X135.011 Y133.32 E5.49193
G1 X134.563 Y133.878 E5.52525
G1 X134.026 Y134.409 E5.56042
G1 X133.739 Y134.661 E5.5782
G1 X133.176 Y135.102 E5.61151
G1 X132.567 Y135.478 E5.64483
G1 X131.625 Y135.895 E5.6928
G1 X131.264 Y136.021 E5.71061
G1 X130.577 Y136.218 E5.74388
G1 X129.871 Y136.338 E5.77723
G1 X129.157 Y136.378 E5.81053
G1 X81.118 Y136.391 E8.04743
G1 X80.404 Y136.351 E8.08073
G1 X79.839 Y136.262 E8.10736
G1 X79.294 Y136.151 E8.13326
G1 X78.602 Y135.97 E8.16656
G1 X77.935 Y135.712 E8.19986
G1 X77.3 Y135.381 E8.23321
G1 X76.65 Y134.938 E8.26984
G1 X76.343 Y134.7 E8.28792
G1 X75.803 Y134.231 E8.32123
G1 X75.319 Y133.704 E8.35455
G1 X74.896 Y133.127 E8.38786
G1 X74.673 Y132.757 E8.40798
G1 X74.488 Y132.425 E8.42567
G1 X74.176 Y131.782 E8.45895
G1 X73.937 Y131.108 E8.49225
G1 X73.774 Y130.411 E8.52558
G1 X73.691 Y129.701 E8.55887
G1 X73.679 Y129.316 E8.5768
G1 X73.634 Y80.912 E10.8307
G1 X73.673 Y80.198 E10.86399
G1 X73.792 Y79.492 E10.89733
G1 X73.891 Y79.111 E10.91566
G1 X73.993 Y78.762 E10.93259
G1 X74.232 Y78.087 E10.96594
G1 X74.544 Y77.444 E10.99922
G1 X75.106 Y76.6 E11.04643
G1 X75.353 Y76.286 E11.06503
G1 X75.826 Y75.75 E11.09832
M204 S3000
M205 X10 Y10
G0 F3000 X76.246 Y76.121
M204 S1800
M205 X8 Y8
G1 F2400 X76.756 Y75.666 E11.13015
G1 X77.476 Y75.178 E11.17065
G1 X77.76 Y75.015 E11.1859
G1 X78.371 Y74.71 E11.21769
G1 X79.014 Y74.479 E11.24951
G1 X79.68 Y74.324 E11.28135
G1 X80.313 Y74.251 E11.31102
G1 X81.613 Y74.172 E11.37166
G1 X81.968 Y74.161 E11.3882
G1 X128.964 Y74.17 E13.57653
G1 X129.646 Y74.21 E13.60834
G1 X130.416 Y74.354 E13.64482
G1 X130.992 Y74.502 E13.67251
G1 X131.643 Y74.71 E13.70434
G1 X132.265 Y74.993 E13.73616
G1 X132.849 Y75.347 E13.76795
G1 X133.5 Y75.867 E13.80675
G1 X133.773 Y76.119 E13.82405
G1 X134.247 Y76.611 E13.85586
G1 X134.661 Y77.155 E13.8877
G1 X135.039 Y77.805 E13.92271
G1 X135.192 Y78.112 E13.93868
G1 X135.46 Y78.74 E13.97047
G1 X135.654 Y79.396 E14.00233
G1 X135.796 Y80.39 E14.04908
G1 X135.849 Y81.335 E14.09315
G1 X135.858 Y81.663 E14.10843
G1 X135.85 Y128.903 E16.30813
G1 X135.78 Y129.804 E16.35021
G1 X135.709 Y130.258 E16.3716
G1 X135.564 Y130.926 E16.40343
G1 X135.342 Y131.572 E16.43524
G1 X135.04 Y132.199 E16.46765
G1 X134.904 Y132.443 E16.48065
G1 X134.537 Y133.02 E16.51249
G1 X134.105 Y133.549 E16.5443
G1 X133.656 Y133.988 E16.57354
G1 X133.369 Y134.24 E16.59132
G1 X132.83 Y134.66 E16.62314
G1 X132.246 Y135.015 E16.65496
G1 X131.44 Y135.366 E16.6959
G1 X131.079 Y135.492 E16.7137
G1 X130.422 Y135.679 E16.74551
G1 X129.748 Y135.788 E16.7773
G1 X129.157 Y135.818 E16.80486
G1 X81.118 Y135.831 E19.04175
G1 X80.436 Y135.791 E19.07357
G1 X79.95 Y135.714 E19.09648
G1 X79.405 Y135.603 E19.12238
G1 X78.745 Y135.427 E19.15418
G1 X78.11 Y135.176 E19.18598
G1 X77.508 Y134.852 E19.21781
G1 X76.993 Y134.495 E19.24699
G1 X76.686 Y134.257 E19.26508
G1 X76.171 Y133.808 E19.29689
G1 X75.713 Y133.302 E19.32867
G1 X75.163 Y132.485 E19.37453
G1 X74.978 Y132.153 E19.39223
G1 X74.68 Y131.537 E19.42409
G1 X74.457 Y130.892 E19.45587
G1 X74.311 Y130.224 E19.48771
G1 X74.239 Y129.315 E19.53017
G1 X74.194 Y80.911 E21.78406
G1 X74.233 Y80.229 E21.81587
G1 X74.429 Y79.268 E21.86154
G1 X74.531 Y78.919 E21.87847
G1 X74.76 Y78.275 E21.9103
G1 X75.063 Y77.663 E21.9421
G1 X75.546 Y76.946 E21.98235
G1 X75.793 Y76.632 E22.00096
G1 X76.246 Y76.121 E22.03275
M204 S3000
M205 X10 Y10
G0 F3000 X76.665 Y76.494
M204 S1800
M205 X8 Y8
G1 F2400 X77.154 Y76.066 E22.06301
G1 X77.755 Y75.664 E22.09668
G1 X78.039 Y75.501 E22.11193
G1 X78.621 Y75.213 E22.14217
G1 X79.234 Y74.998 E22.17242
G1 X79.869 Y74.861 E22.20266
G1 X80.347 Y74.81 E22.22505
G1 X81.647 Y74.731 E22.28569
G1 X81.968 Y74.721 E22.30065
G1 X128.964 Y74.73 E24.48898
G1 X129.612 Y74.77 E24.51921
G1 X130.277 Y74.896 E24.55073
G1 X130.853 Y75.044 E24.57842
G1 X131.471 Y75.244 E24.60866
G1 X132.06 Y75.519 E24.63893
G1 X132.61 Y75.863 E24.66914
G1 X133.12 Y76.278 E24.69976
G1 X133.393 Y76.53 E24.71706
G1 X133.843 Y76.999 E24.74732
G1 X134.231 Y77.52 E24.77757
G1 X134.538 Y78.055 E24.80629
G1 X134.691 Y78.362 E24.82226
G1 X134.944 Y78.96 E24.8525
G1 X135.122 Y79.585 E24.88276
G1 X135.237 Y80.421 E24.92205
G1 X135.29 Y81.366 E24.96613
G1 X135.298 Y81.663 E24.97996
G1 X135.29 Y128.903 E27.17965
G1 X135.227 Y129.718 E27.21771
G1 X135.156 Y130.172 E27.23911
G1 X135.016 Y130.806 E27.26934
G1 X134.799 Y131.419 E27.29962
G1 X134.551 Y131.927 E27.32595
G1 X134.415 Y132.171 E27.33895
G1 X134.064 Y132.718 E27.36922
G1 X133.649 Y133.217 E27.39944
G1 X133.287 Y133.568 E27.42292
G1 X133 Y133.82 E27.4407
G1 X132.486 Y134.217 E27.47094
G1 X131.928 Y134.549 E27.50118
G1 X131.256 Y134.837 E27.53522
G1 X130.895 Y134.963 E27.55303
G1 X130.27 Y135.139 E27.58326
G1 X129.627 Y135.237 E27.61355
G1 X129.156 Y135.258 E27.6355
G1 X81.117 Y135.271 E29.8724
G1 X80.469 Y135.231 E29.90263
G1 X80.062 Y135.165 E29.92183
G1 X79.517 Y135.054 E29.94773
G1 X78.89 Y134.885 E29.97796
G1 X78.288 Y134.641 E30.00821
G1 X77.721 Y134.325 E30.03844
G1 X77.336 Y134.053 E30.06039
G1 X77.029 Y133.815 E30.07847
G1 X76.541 Y133.386 E30.10873
G1 X76.109 Y132.901 E30.13897
G1 X75.652 Y132.212 E30.17747
G1 X75.467 Y131.88 E30.19517
G1 X75.186 Y131.294 E30.22543
G1 X74.979 Y130.678 E30.25569
G1 X74.85 Y130.042 E30.28591
G1 X74.799 Y129.315 E30.31984
G1 X74.754 Y80.911 E32.57374
G1 X74.793 Y80.262 E32.60401
G1 X74.966 Y79.425 E32.64381
G1 X75.068 Y79.076 E32.66074
G1 X75.288 Y78.465 E32.69098
G1 X75.582 Y77.885 E32.72126
G1 X75.986 Y77.293 E32.75463
G1 X76.233 Y76.979 E32.77323
G1 X76.665 Y76.494 E32.80348
M204 S3000
M205 X10 Y10
G1 F2400 E26.80348
;MESH:height-adaptor-54mm.stl
G0 F3000 X79.664 Y80.037
G0 X80.883 Y80.97
G0 X87.766 Y109.687
G0 X88.511 Y111.869
G0 X89.366 Y113.589
G0 X91.472 Y117.455
M204 S1800
M205 X8 Y8
;TYPE:WALL-INNER
G1 F2400 E32.80348
G1 F1500 X92.054 Y118.055 E32.8424
G1 X92.608 Y118.586 E32.87813
G1 X93.241 Y119.136 E32.91718
G1 X93.84 Y119.615 E32.95289
G1 X94.518 Y120.11 E32.99198
G1 X95.156 Y120.534 E33.02765
G1 X95.873 Y120.967 E33.06666
G1 X96.549 Y121.336 E33.10252
G1 X97.302 Y121.701 E33.14148
G1 X98.003 Y122.01 E33.17715
G1 X98.787 Y122.311 E33.21626
G1 X99.485 Y122.547 E33.25057
G1 X100.254 Y122.773 E33.28789
G1 X101.034 Y122.964 E33.32528
G1 X101.824 Y123.122 E33.3628
G1 X102.618 Y123.242 E33.40019
G1 X103.416 Y123.33 E33.43757
G1 X104.28 Y123.385 E33.47789
G1 X105.05 Y123.4 E33.51375
G1 X105.811 Y123.384 E33.54919
G1 X106.634 Y123.329 E33.5876
G1 X107.389 Y123.246 E33.62297
G1 X108.204 Y123.122 E33.66135
G1 X108.948 Y122.976 E33.69666
G1 X109.754 Y122.779 E33.73529
G1 X110.479 Y122.571 E33.77041
G1 X111.265 Y122.307 E33.80902
G1 X111.969 Y122.036 E33.84415
G1 X112.733 Y121.705 E33.88292
G1 X113.408 Y121.375 E33.9179
G1 X114.141 Y120.979 E33.9567
G1 X114.785 Y120.593 E33.99166
G1 X115.482 Y120.134 E34.03052
G1 X116.088 Y119.697 E34.06531
G1 X116.745 Y119.178 E34.1043
G1 X117.313 Y118.69 E34.13917
G1 X117.921 Y118.116 E34.1781
G1 X118.443 Y117.584 E34.2128
G1 X119.003 Y116.955 E34.25202
G1 X119.474 Y116.382 E34.28656
G1 X119.981 Y115.707 E34.32587
G1 X120.434 Y115.044 E34.36326
G1 X120.848 Y114.379 E34.39973
G1 X121.24 Y113.68 E34.43705
G1 X121.594 Y112.985 E34.47337
G1 X121.925 Y112.262 E34.51039
G1 X122.222 Y111.525 E34.54739
G1 X122.487 Y110.778 E34.5843
G1 X122.718 Y110.022 E34.62111
G1 X122.918 Y109.256 E34.65797
G1 X123.086 Y108.48 E34.69495
G1 X123.218 Y107.698 E34.73187
G1 X123.318 Y106.914 E34.76868
G1 X123.384 Y106.122 E34.80568
G1 X123.414 Y105.328 E34.84268
G1 X123.411 Y104.538 E34.87947
G1 X123.375 Y103.746 E34.91638
G1 X123.304 Y102.957 E34.95327
G1 X123.198 Y102.171 E34.9902
G1 X123.06 Y101.39 E35.02713
G1 X122.887 Y100.615 E35.06411
G1 X122.682 Y99.851 E35.10094
G1 X122.443 Y99.095 E35.13786
G1 X122.172 Y98.351 E35.17473
G1 X121.877 Y97.629 E35.21105
G1 X121.566 Y96.954 E35.24566
G1 X121.178 Y96.207 E35.28485
G1 X120.814 Y95.563 E35.3193
G1 X120.363 Y94.848 E35.35866
G1 X119.942 Y94.238 E35.39317
G1 X119.436 Y93.568 E35.43227
G1 X118.961 Y92.993 E35.467
G1 X118.398 Y92.37 E35.5061
G1 X117.875 Y91.837 E35.54087
G1 X117.262 Y91.266 E35.57988
G1 X116.694 Y90.778 E35.61475
G1 X116.036 Y90.266 E35.65357
G1 X115.429 Y89.828 E35.68842
G1 X114.73 Y89.373 E35.72726
G1 X114.085 Y88.987 E35.76226
G1 X113.349 Y88.595 E35.80109
G1 X112.673 Y88.266 E35.8361
G1 X111.908 Y87.939 E35.87484
G1 X111.202 Y87.67 E35.91002
G1 X110.416 Y87.411 E35.94855
G1 X109.69 Y87.203 E35.98372
G1 X108.883 Y87.011 E36.02234
G1 X108.14 Y86.867 E36.05758
G1 X107.324 Y86.745 E36.096
G1 X106.567 Y86.666 E36.13144
G1 X105.747 Y86.615 E36.1697
G1 X105.015 Y86.6 E36.20379
G1 X104.217 Y86.617 E36.24096
G1 X103.414 Y86.67 E36.27843
G1 X102.62 Y86.758 E36.31563
G1 X101.824 Y86.877 E36.35311
G1 X101.034 Y87.036 E36.39063
G1 X100.255 Y87.226 E36.42797
G1 X99.484 Y87.452 E36.46538
G1 X98.726 Y87.71 E36.50266
G1 X97.978 Y87.999 E36.54
G1 X97.241 Y88.323 E36.57749
G1 X96.489 Y88.697 E36.6166
G1 X95.816 Y89.065 E36.65231
G1 X95.102 Y89.502 E36.69129
G1 X94.463 Y89.927 E36.72703
G1 X93.789 Y90.425 E36.76605
G1 X93.191 Y90.904 E36.80173
G1 X92.56 Y91.457 E36.8408
G1 X92.006 Y91.989 E36.87656
G1 X91.428 Y92.595 E36.91556
G1 X90.92 Y93.174 E36.95142
G1 X90.399 Y93.828 E36.99036
G1 X89.944 Y94.447 E37.02613
G1 X89.481 Y95.145 E37.06513
G1 X89.083 Y95.8 E37.10082
G1 X88.681 Y96.534 E37.13979
G1 X88.341 Y97.226 E37.17569
G1 X88.005 Y97.99 E37.21455
G1 X87.727 Y98.709 E37.25045
G1 X87.461 Y99.499 E37.28926
G1 X87.245 Y100.238 E37.32511
G1 X87.047 Y101.048 E37.36394
G1 X86.896 Y101.806 E37.39993
G1 X86.771 Y102.631 E37.43878
G1 X86.688 Y103.398 E37.47471
G1 X86.633 Y104.231 E37.51358
G1 X86.619 Y105.063 E37.55233
G1 X86.635 Y105.836 E37.58833
G1 X86.694 Y106.668 E37.62717
G1 X86.779 Y107.434 E37.66306
G1 X86.91 Y108.259 E37.70195
G1 X87.062 Y109.015 E37.73786
G1 X87.263 Y109.823 E37.77663
G1 X87.479 Y110.564 E37.81257
G1 X87.751 Y111.352 E37.85139
G1 X88.03 Y112.069 E37.88721
G1 X88.369 Y112.834 E37.92617
G1 X88.712 Y113.524 E37.96205
G1 X89.116 Y114.255 E38.00094
G1 X89.515 Y114.912 E38.03674
G1 X89.983 Y115.606 E38.07571
G1 X90.44 Y116.226 E38.11158
G1 X90.965 Y116.875 E38.15045
G1 X91.472 Y117.455 E38.18632
M204 S3000
M205 X10 Y10
G0 F3000 X96.133 Y120.515
G0 X98.201 Y121.528
G0 X100.39 Y122.27
G0 X128.618 Y128.597
M204 S1800
M205 X8 Y8
G1 F1500 X81.698 Y128.6 E40.37111
G1 X81.418 Y128.6 E40.38415
G1 X81.418 Y128.32 E40.39259
G1 X81.424 Y81.401 E42.57733
G1 X128.618 Y81.401 E44.77489
G1 X128.618 Y128.597 E46.97253
M204 S3000
M205 X10 Y10
G0 F3000 X100.39 Y122.27
G0 X98.201 Y121.528
G0 X96.133 Y120.515
G0 X94.156 Y119.201
G0 X91.811 Y117.142
G0 X91.884 Y117.075
M204 S1800
M205 X8 Y8
G1 F1500 X92.449 Y117.658 E47.01033
G1 X92.986 Y118.172 E47.04495
G1 X93.6 Y118.706 E47.08284
G1 X94.18 Y119.17 E47.11742
G1 X94.838 Y119.65 E47.15535
G1 X95.456 Y120.061 E47.18991
G1 X96.152 Y120.481 E47.22776
G1 X96.806 Y120.838 E47.26245
G1 X97.537 Y121.193 E47.30029
G1 X98.216 Y121.492 E47.33484
G1 X98.977 Y121.784 E47.37279
G1 X99.654 Y122.013 E47.40607
G1 X100.4 Y122.232 E47.44228
G1 X101.156 Y122.417 E47.47852
G1 X101.921 Y122.57 E47.51484
G1 X102.691 Y122.687 E47.55111
G1 X103.464 Y122.772 E47.58732
G1 X104.303 Y122.825 E47.62647
G1 X105.05 Y122.84 E47.66126
G1 X105.786 Y122.824 E47.69554
G1 X106.585 Y122.771 E47.73282
G1 X107.316 Y122.691 E47.76706
G1 X108.108 Y122.57 E47.80437
G1 X108.828 Y122.429 E47.83853
G1 X109.61 Y122.238 E47.87602
G1 X110.312 Y122.036 E47.91003
G1 X111.075 Y121.78 E47.94751
G1 X111.757 Y121.518 E47.98153
G1 X112.499 Y121.196 E48.01919
G1 X113.152 Y120.877 E48.05303
G1 X113.864 Y120.492 E48.09072
G1 X114.487 Y120.119 E48.12453
G1 X115.164 Y119.673 E48.16228
G1 X115.751 Y119.25 E48.19597
G1 X116.389 Y118.746 E48.23383
G1 X116.938 Y118.274 E48.26755
G1 X117.529 Y117.716 E48.30539
G1 X118.034 Y117.201 E48.33898
G1 X118.578 Y116.591 E48.37704
G1 X119.034 Y116.036 E48.41048
G1 X119.526 Y115.381 E48.44863
G1 X119.965 Y114.738 E48.48488
G1 X120.366 Y114.094 E48.52021
G1 X120.746 Y113.416 E48.5564
G1 X121.09 Y112.741 E48.59168
G1 X121.41 Y112.041 E48.62752
G1 X121.698 Y111.327 E48.66337
G1 X121.955 Y110.603 E48.69914
G1 X122.179 Y109.869 E48.73487
G1 X122.373 Y109.126 E48.77063
G1 X122.536 Y108.374 E48.80646
G1 X122.664 Y107.616 E48.84226
G1 X122.761 Y106.855 E48.87798
G1 X122.825 Y106.088 E48.91382
G1 X122.854 Y105.319 E48.94965
G1 X122.851 Y104.552 E48.98537
G1 X122.816 Y103.784 E49.02116
G1 X122.747 Y103.019 E49.05693
G1 X122.645 Y102.257 E49.09273
G1 X122.511 Y101.5 E49.12853
G1 X122.343 Y100.749 E49.16436
G1 X122.144 Y100.008 E49.20009
G1 X121.913 Y99.275 E49.23587
G1 X121.65 Y98.553 E49.27165
G1 X121.363 Y97.852 E49.30692
G1 X121.063 Y97.2 E49.34034
G1 X120.686 Y96.474 E49.37844
G1 X120.333 Y95.85 E49.41182
G1 X119.896 Y95.157 E49.44997
G1 X119.488 Y94.566 E49.48341
G1 X118.996 Y93.915 E49.5214
G1 X118.537 Y93.359 E49.55498
G1 X117.99 Y92.754 E49.59295
G1 X117.484 Y92.238 E49.62661
G1 X116.889 Y91.684 E49.66446
G1 X116.339 Y91.212 E49.69821
G1 X115.7 Y90.714 E49.73593
G1 X115.112 Y90.29 E49.76969
G1 X114.433 Y89.848 E49.80742
G1 X113.809 Y89.475 E49.84127
G1 X113.095 Y89.094 E49.87895
G1 X112.44 Y88.776 E49.91285
G1 X111.698 Y88.458 E49.95044
G1 X111.015 Y88.198 E49.98447
G1 X110.251 Y87.946 E50.02194
G1 X109.548 Y87.745 E50.05598
G1 X108.765 Y87.559 E50.09346
G1 X108.045 Y87.419 E50.12761
G1 X107.253 Y87.301 E50.1649
G1 X106.521 Y87.224 E50.19917
G1 X105.724 Y87.175 E50.23635
G1 X105.015 Y87.16 E50.26937
G1 X104.241 Y87.177 E50.30542
G1 X103.463 Y87.228 E50.34173
G1 X102.692 Y87.313 E50.37784
G1 X101.921 Y87.429 E50.41415
G1 X101.156 Y87.583 E50.45049
G1 X100.4 Y87.767 E50.48672
G1 X99.653 Y87.986 E50.52296
G1 X98.917 Y88.236 E50.55916
G1 X98.192 Y88.517 E50.59536
G1 X97.478 Y88.83 E50.63166
G1 X96.748 Y89.193 E50.66963
G1 X96.097 Y89.55 E50.7042
G1 X95.403 Y89.974 E50.74207
G1 X94.785 Y90.386 E50.77665
G1 X94.13 Y90.869 E50.81455
G1 X93.551 Y91.333 E50.8491
G1 X92.939 Y91.87 E50.88701
G1 X92.403 Y92.385 E50.92162
G1 X91.841 Y92.973 E50.9595
G1 X91.35 Y93.533 E50.99418
G1 X90.844 Y94.168 E51.03199
G1 X90.403 Y94.768 E51.06666
G1 X89.954 Y95.445 E51.10449
G1 X89.568 Y96.08 E51.13909
G1 X89.178 Y96.792 E51.17689
G1 X88.849 Y97.462 E51.21165
G1 X88.523 Y98.204 E51.24938
G1 X88.254 Y98.9 E51.28413
G1 X87.995 Y99.667 E51.32183
